static/img/kroki/2317d0ccf0f8351be942f468b72051ab.svg

<?xml version="1.0" encoding="us-ascii" standalone="no"?><svg xmlns="http://www.w3.org/2000/svg" xmlns:xlink="http://www.w3.org/1999/xlink" contentStyleType="text/css" height="374px" preserveAspectRatio="none" style="width:319px;height:374px;" version="1.1" viewBox="0 0 319 374" width="319px" zoomAndPan="magnify"><defs/><g><!--class azure_compute_availability_set--><g id="elem_azure_compute_availability_set"><rect codeLine="23" fill="#3D176E" height="39.7891" id="azure_compute_availability_set" rx="2.5" ry="2.5" style="stroke:#000D19;stroke-width:0.5;" width="305" x="7" y="328.58"/><ellipse cx="22" cy="348.4745" fill="#ADD1B2" rx="11" ry="11" style="stroke:#181818;stroke-width:1.0;"/><path d="M24.9688,354.1152 Q24.3906,354.412 23.75,354.5527 Q23.1094,354.7089 22.4063,354.7089 Q19.9063,354.7089 18.5781,353.0683 Q17.2656,351.412 17.2656,348.287 Q17.2656,345.162 18.5781,343.5058 Q19.9063,341.8495 22.4063,341.8495 Q23.1094,341.8495 23.75,342.0058 Q24.4063,342.162 24.9688,342.4589 L24.9688,345.1777 Q24.3438,344.5995 23.75,344.3339 Q23.1563,344.0527 22.5313,344.0527 Q21.1875,344.0527 20.5,345.1308 Q19.8125,346.1933 19.8125,348.287 Q19.8125,350.3808 20.5,351.4589 Q21.1875,352.5214 22.5313,352.5214 Q23.1563,352.5214 23.75,352.2558 Q24.3438,351.9745 24.9688,351.3964 L24.9688,354.1152 Z " fill="#000000"/><text fill="#D9B8FF" font-family="Helvetica" font-size="17" lengthAdjust="spacing" textLength="263" x="41" y="354.3598">azure_compute_availability_set</text></g><!--class microsoft_resource--><g id="elem_microsoft_resource"><rect codeLine="26" fill="#3D176E" height="39.7891" id="microsoft_resource" rx="2.5" ry="2.5" style="stroke:#000D19;stroke-width:0.5;" width="200" x="59.5" y="167.79"/><ellipse cx="74.5" cy="187.6845" fill="#ADD1B2" rx="11" ry="11" style="stroke:#181818;stroke-width:1.0;"/><path d="M77.4688,193.3252 Q76.8906,193.622 76.25,193.7627 Q75.6094,193.9189 74.9063,193.9189 Q72.4063,193.9189 71.0781,192.2783 Q69.7656,190.622 69.7656,187.497 Q69.7656,184.372 71.0781,182.7158 Q72.4063,181.0595 74.9063,181.0595 Q75.6094,181.0595 76.25,181.2158 Q76.9063,181.372 77.4688,181.6689 L77.4688,184.3877 Q76.8438,183.8095 76.25,183.5439 Q75.6563,183.2627 75.0313,183.2627 Q73.6875,183.2627 73,184.3408 Q72.3125,185.4033 72.3125,187.497 Q72.3125,189.5908 73,190.6689 Q73.6875,191.7314 75.0313,191.7314 Q75.6563,191.7314 76.25,191.4658 Q76.8438,191.1845 77.4688,190.6064 L77.4688,193.3252 Z " fill="#000000"/><text fill="#D9B8FF" font-family="Helvetica" font-size="17" lengthAdjust="spacing" textLength="158" x="93.5" y="193.5698">microsoft_resource</text></g><!--class resource--><g id="elem_resource"><rect codeLine="29" fill="#3D176E" height="39.7891" id="resource" rx="2.5" ry="2.5" style="stroke:#000D19;stroke-width:0.5;" width="113" x="103" y="7"/><ellipse cx="118" cy="26.8945" fill="#ADD1B2" rx="11" ry="11" style="stroke:#181818;stroke-width:1.0;"/><path d="M120.9688,32.5352 Q120.3906,32.832 119.75,32.9727 Q119.1094,33.1289 118.4063,33.1289 Q115.9063,33.1289 114.5781,31.4883 Q113.2656,29.832 113.2656,26.707 Q113.2656,23.582 114.5781,21.9258 Q115.9063,20.2695 118.4063,20.2695 Q119.1094,20.2695 119.75,20.4258 Q120.4063,20.582 120.9688,20.8789 L120.9688,23.5977 Q120.3438,23.0195 119.75,22.7539 Q119.1563,22.4727 118.5313,22.4727 Q117.1875,22.4727 116.5,23.5508 Q115.8125,24.6133 115.8125,26.707 Q115.8125,28.8008 116.5,29.8789 Q117.1875,30.9414 118.5313,30.9414 Q119.1563,30.9414 119.75,30.6758 Q120.3438,30.3945 120.9688,29.8164 L120.9688,32.5352 Z " fill="#000000"/><text fill="#D9B8FF" font-family="Helvetica" font-size="17" lengthAdjust="spacing" textLength="71" x="137" y="32.7798">resource</text></g><!--reverse link microsoft_resource to azure_compute_availability_set--><g id="link_microsoft_resource_azure_compute_availability_set"><path codeLine="32" d="M159.5,225.84 C159.5,256.36 159.5,297.69 159.5,328.25 " fill="none" id="microsoft_resource-backto-azure_compute_availability_set" style="stroke:#FFAF37;stroke-width:2.0;"/><polygon fill="none" points="159.5,207.84,153.5,225.84,165.5,225.84,159.5,207.84" style="stroke:#FFAF37;stroke-width:2.0;"/></g><!--reverse link resource to microsoft_resource--><g id="link_resource_microsoft_resource"><path codeLine="33" d="M159.5,65.05 C159.5,95.57 159.5,136.9 159.5,167.46 " fill="none" id="resource-backto-microsoft_resource" style="stroke:#FFAF37;stroke-width:2.0;"/><polygon fill="none" points="159.5,47.05,153.5,65.05,165.5,65.05,159.5,47.05" style="stroke:#FFAF37;stroke-width:2.0;"/></g><!--SRC=[XT5DRy8m30RWUtz59CwLO6Y3Ihimf6cxe6diNhc9GoEQf79S46pxxuF1fj3oSRKVsQ-JqYWKQ6lU28ksG0f9M1fN0u4L4oA_dlhAa-Xf3NeuQZUVlUERO0OMnGjMAsGZeIq-IYEN3aCGTr7h2UHoGRvnwZ2U2LpOjT1nfAOLX31X9bCqZ54ObHLZhTkoFRGtL8FH0tQO9uLq9Fr-NmsoDhcvwkhT_s9kjYW6yQFDF6CdPcV5hxgQSY-Ya9r3__eNCxw1KiOjn7rKUpza8eTqKf-NeFnwhpLK8LuJ60azRsgSTgx2RApqw2n-lOGJkNyw0Tk6C9VUrhjlps45feB2L8OtUK0MdqdoVPJMIFB1Qyu9Wsz8OjmzhPsnZrzfcjvObxHqTqpo0m00]--></g></svg>

<svg xmlns="http://www.w3.org/2000/svg" width="319" height="374" viewBox="0 0 319 374"><rect width="305" height="39.789" x="7" y="328.58" fill="#3D176E" rx="2.5" ry="2.5" style="stroke:#000d19;stroke-width:.5"/><circle cx="22" cy="348.474" r="11" fill="#ADD1B2" style="stroke:#181818;stroke-width:1"/><path d="M24.969 354.115q-.578.297-1.219.438-.64.156-1.344.156-2.5 0-3.828-1.64-1.312-1.657-1.312-4.782t1.312-4.781q1.328-1.656 3.828-1.656.703 0 1.344.156.656.156 1.219.453v2.719q-.625-.579-1.219-.844-.594-.281-1.219-.281-1.343 0-2.031 1.078-.687 1.062-.687 3.156t.687 3.172q.688 1.062 2.031 1.062.625 0 1.219-.265.594-.281 1.219-.86z"/><text x="41" y="354.36" fill="#D9B8FF" font-family="Helvetica" font-size="17" textLength="263">azure_compute_availability_set</text><rect width="200" height="39.789" x="59.5" y="167.79" fill="#3D176E" rx="2.5" ry="2.5" style="stroke:#000d19;stroke-width:.5"/><circle cx="74.5" cy="187.685" r="11" fill="#ADD1B2" style="stroke:#181818;stroke-width:1"/><path d="M77.469 193.325q-.578.297-1.219.438-.64.156-1.344.156-2.5 0-3.828-1.64-1.312-1.657-1.312-4.782t1.312-4.781q1.328-1.656 3.828-1.656.703 0 1.344.156.656.156 1.219.453v2.719q-.625-.578-1.219-.844-.594-.281-1.219-.281-1.344 0-2.031 1.078-.687 1.062-.687 3.156t.687 3.172q.688 1.062 2.031 1.062.625 0 1.219-.265.594-.281 1.219-.86z"/><text x="93.5" y="193.57" fill="#D9B8FF" font-family="Helvetica" font-size="17" textLength="158">microsoft_resource</text><rect width="113" height="39.789" x="103" y="7" fill="#3D176E" rx="2.5" ry="2.5" style="stroke:#000d19;stroke-width:.5"/><circle cx="118" cy="26.895" r="11" fill="#ADD1B2" style="stroke:#181818;stroke-width:1"/><path d="M120.969 32.535q-.578.297-1.219.438-.64.156-1.344.156-2.5 0-3.828-1.64-1.312-1.657-1.312-4.782t1.312-4.781q1.328-1.656 3.828-1.656.703 0 1.344.156.656.156 1.219.453v2.719q-.625-.578-1.219-.844-.594-.281-1.219-.281-1.344 0-2.031 1.078-.687 1.062-.687 3.156t.687 3.172q.688 1.062 2.031 1.062.625 0 1.219-.265.594-.281 1.219-.86z"/><text x="137" y="32.78" fill="#D9B8FF" font-family="Helvetica" font-size="17" textLength="71">resource</text><path fill="none" d="M159.5 225.84v102.41m0-120.41-6 18h12zm0-142.79v102.41m0-120.41-6 18h12z" style="stroke:#ffaf37;stroke-width:2"/></svg>
